icons/mobile/24/svg/pin-slash-fill-24.svg

<svg width="24" height="24" viewBox="0 0 24 24" fill="none" xmlns="http://www.w3.org/2000/svg">
<path d="M21.0058 2.75579C21.3475 2.41408 21.9024 2.41408 22.2441 2.75579C22.5858 3.0975 22.5858 3.65237 22.2441 3.99407L17.7255 8.51165C18.6342 8.65054 19.4222 9.25424 19.8085 10.1201C20.1955 10.9861 20.1053 11.9314 19.5673 12.6484C18.6355 13.8911 17.7394 14.8738 17.1464 15.5068L16.955 15.6962L21.7451 20.5077C22.0856 20.8501 22.0851 21.4042 21.7431 21.7451C21.4008 22.0859 20.8468 22.0842 20.5058 21.7421L15.7158 16.9316L15.5224 17.1249C14.4725 18.1048 13.4982 18.9307 12.6103 19.5947C12.1993 19.9017 11.711 20.0585 11.206 20.0585C10.852 20.0585 10.4886 19.9821 10.1386 19.8261C9.26493 19.4349 8.65554 18.6383 8.51556 17.7216L3.99407 22.2441C3.65237 22.5858 3.0975 22.5858 2.75579 22.2441C2.41408 21.9024 2.41408 21.3475 2.75579 21.0058L21.0058 2.75579Z" fill="black"/>
<path d="M10.9365 3.16204C11.3299 2.88195 11.8758 2.97383 12.1562 3.36712C12.4366 3.76064 12.3456 4.30736 11.9521 4.58782C11.6875 4.77639 11.4312 4.96666 11.1816 5.15618L13.8349 7.80657L7.81243 13.8349L5.15618 11.1806C4.9572 11.4424 4.76702 11.6995 4.58685 11.9521C4.30621 12.3453 3.76045 12.4366 3.36712 12.1562C2.97372 11.8755 2.88237 11.3289 3.16302 10.9355C4.09821 9.62461 5.26907 8.18197 6.72552 6.72552C7.86045 5.59059 9.25321 4.36158 10.9365 3.16204Z" fill="black"/>
</svg>

<!-- This Source Code Form is subject to the terms of the Mozilla Public
   - License, v. 2.0. If a copy of the MPL was not distributed with this
   - file, You can obtain one at http://mozilla.org/MPL/2.0/. -->
<svg xmlns="http://www.w3.org/2000/svg" width="24" height="24" fill="none" viewBox="0 0 24 24">
    <path fill="#000" d="M21.006 2.756a.876.876 0 0 1 1.238 1.238l-4.518 4.518a2.75 2.75 0 0 1 2.082 1.608c.387.866.297 1.811-.24 2.528a34 34 0 0 1-2.422 2.859l-.191.19 4.79 4.81a.876.876 0 0 1-1.24 1.235l-4.79-4.81-.193.193a36 36 0 0 1-2.912 2.47c-.41.307-.899.463-1.404.463a2.6 2.6 0 0 1-1.067-.232 2.78 2.78 0 0 1-1.623-2.104l-4.522 4.522a.876.876 0 0 1-1.238-1.238zm-10.069.406a.875.875 0 0 1 1.015 1.426q-.395.283-.77.568l2.653 2.65-6.023 6.029-2.656-2.654q-.298.392-.57.771a.875.875 0 1 1-1.423-1.017 33.3 33.3 0 0 1 7.774-7.773" />
</svg>
